X:1
T:Title
%%score { ( 1 3 ) | ( 2 4 ) }
L:1/8
M:4/4
K:F
V:1 treble nm="Grand Piano"
V:3 treble 
V:2 bass 
V:4 bass 
V:1
 z4 z[Q:1/4=100] CDE | z2 D2 CFAB | c6 z2 | d3 c BA[DG][DF] | E6 z2 | z2 D2 CABc | d6 z2 | %7
 cdcA F2 [EG]2 |[M:11/16] F/-F/-F/-F/-F-<F z/ z |[M:3/8] FFF |[M:4/4] d2- [Fd-]2 dBcd | c6 z2 | %12
 G2 c2 c=BAB |[M:17/16] c/-c/-c/-c/-c/-c/-c/-c-<c z/ z/ z/ z/ z |[M:4/4] z2 D2 CABc | %15
 d6[K:bass][K:treble] z2 | c3 A F2 [EG]2 |[M:5/8] F-F- F3 |] %18
V:2
 z4 z C,D,E, | z2 B,2 A,[F,A,][K:treble][F,CF][G,CE] | %2
 [A,CF]2[K:bass] [G,B,]2 [F,A,]2[K:treble] [A,CF]2 | [B,F]3 [A,CF] [G,CE][F,CF][K:bass]B,,=B,, | %4
 z2 A,2 C,C,D,E, | z2 B,2 [F,A,][K:treble][F,CF][G,CE][A,CF] | [B,F]2 [A,C]2 [B,D]2 [B,^F]2 | %7
 [A,CF][B,F][A,CF][K:bass][F,CF] [F,A,]2 [C,B,]2 |[M:11/16] A,-<A,B,-<B,A,3/2 |[M:3/8] F,F,F, | %10
[M:4/4] [B,,B,]2 [B,,B,]2 [B,,F,]2[K:treble] [B,D]2 | %11
 [A,CF]2[K:bass] [G,B,]2 [F,A,][F,A,F][F,CF][F,CF] | [G,CE]2 [G,EG]2 [G,DF]2 [G,B,F]2 | %13
[M:17/16] C/-C/-C/-C/-C/-C/-C/-C-<C[K:bass]C,D,E, |[M:4/4] z2 B,2 A,[K:treble][F,CF][G,CE][A,CF] | %15
 [B,F]4- [B,F][B,DF][_A,=B,F][A,B,F] | [A,CF]3[K:bass] [F,CF] [F,A,]2 [C,B,]2 | %17
[M:5/8] A,2 B,2 A, |] %18
V:3
 x8 | F6 z2 | z2 E2 F2 c2 | x8 | C2 z2 B,CDE | F6 z2 | z2 ^F2 G2 d2 | x8 | %8
[M:11/16] z/ z/ z D-<DC3/2 |[M:3/8] x3 |[M:4/4] F2 z2 D2 z2 | z2 E2 FAAA | x8 | %13
[M:17/16] z/ z/ z G,-<G,C,3/2CDE |[M:4/4] F6 z2 | z2[K:bass] F,2 B,,[K:treble]fed | x8 | %17
[M:5/8] z2 D2 C |] %18
V:4
 x8 | F,6[K:treble] z2 | x2[K:bass] x4[K:treble] x2 | x6[K:bass] x2 | C,4 z4 | F,4 z4[K:treble] | %6
 x8 | x3[K:bass] x5 |[M:11/16] F,/-F,/-F,/-F,/-F,-<F, z/ z |[M:3/8] x3 |[M:4/4] x6[K:treble] x2 | %11
 x2[K:bass] x6 | x8 |[M:17/16] x11/2[K:bass] x3 |[M:4/4] F,6[K:treble] z2 | x8 | x3[K:bass] x5 | %17
[M:5/8] F,-F,- F,3 |] %18

